!!!OTL: 205b. Schlummer unter Dornenrosen.
!!!ODT: 1880
!!!ARE: Europa, Mitteleuropa, Deutschland, Hessen; Ober - Lahnkreis
!!!SCT: E0205A
!!!TXL: @@DE
!!!YEM: Copyright 1995, estate of Helmut Schaffrath.
**kern	**text
*ICvox	*
*M3/4	*
*met(3)	*
*k[b-]	*
*F:	*
!LO:TX:a:t=Mel. aus dem Ober-Lahnkreis und Heſſen. 1880.	!
{4f	Jch
=1	=1
8eL	leg-
8gJ	.
4g	-te
8eL	mich
8dJ	.
=2	=2
8cL	nie-
8aJ	.
4a}	-der
{4f	ins
=3	=3
(4.a	gru-
8b-/)	.
8cc	-ni-
8a	-ge
=4	=4
2g}	Gras,
{8gL	und
8aJ	.
=5	=5
8b-L	lau-
8ffJ	-er-
4ff	-te
8ddL	auf
8b-J	.
=6	=6
8a/L	mei-
8ccJ	.
4cc}	-nen
{8aL	herʒ-
8fJ	.
=7	=7
(4.e	-tau-
8g)	.
8b-L	-ſi-
8gJ	-gen
=8	=8
2f}	Schatʒ.
==	==
!!!AGN: erzaehlendes Volks - Lied, Todes - Ahnung; betrogene Liebe
!!!ONB: ESAC (Essen Associative Code) Database: ERK1
!!!AMT: simple triple
!!!AIN: vox
!!!EED: Helmut Schaffrath
!!!EEV: 1.0
!!!GTL: Todtensagen (Todesahnung, Geisterliebe, Grabesstimmen)
!!!URL-scan: https://rosdok.uni-rostock.de/mcrviewer/recordIdentifier/rosdok_ppn745146120/iview2/phys_0680.iview2?x=-401.4153369901496&y=1510.89127538912&scale=0.4895165665220185&rotation=0&layout=singlePageLayout
!!!ENC: Anna Maria Matuszewska
!!!EEV: 2024/06/12
*-	*-
